icon-themes/breeze_svg/cmd/lc_dbviewaliases.svg

<svg viewBox="0 0 24 24" xmlns="http://www.w3.org/2000/svg"><path d="m12 4c-1.662 0-3 1.338-3 3s1.338 3 3 3 3-1.338 3-3-1.338-3-3-3zm0 1c1.108 0 2 .892 2 2s-.892 2-2 2-2-.892-2-2 .892-2 2-2zm0 7c-2.77 0-5 .891984-5 2v5 1h1.2011719 7.5976561 1.201172v-1-5c0-1.108016-2.23-2-5-2zm0 1c2.216 0 4 .636298 4 1.427734v4.572266h-8v-4.572266c0-.791436 1.784-1.427734 4-1.427734z" fill="#4d4d4d"/></svg>

<svg xmlns="http://www.w3.org/2000/svg" viewBox="0 0 24 24">
 <path 
     style="fill:#4d4d4d" 
     d="M 12 4 C 10.338 4 9 5.338 9 7 C 9 8.662 10.338 10 12 10 C 13.662 10 15 8.662 15 7 C 15 5.338 13.662 4 12 4 z M 12 5 C 13.108 5 14 5.892 14 7 C 14 8.108 13.108 9 12 9 C 10.892 9 10 8.108 10 7 C 10 5.892 10.892 5 12 5 z M 12 12 C 9.23 12 7 12.891984 7 14 L 7 19 L 7 20 L 8.2011719 20 L 15.798828 20 L 17 20 L 17 19 L 17 14 C 17 12.891984 14.77 12 12 12 z M 12 13 C 14.216 13 16 13.636298 16 14.427734 L 16 19 L 8 19 L 8 14.427734 C 8 13.636298 9.784 13 12 13 z "
     />
 </svg>
